icons/step-3.svg

<svg width="62" height="73" viewBox="0 0 62 73" fill="none" xmlns="http://www.w3.org/2000/svg">
<path d="M40 60L37 63L42.5 68.5L59 52L54 46.5L49.5 51L40 60Z" fill="#B4D6F8"/>
<path d="M40 60L36.1005 56.1005C33.475 53.475 29.914 52 26.201 52H14.5L3.25 40.75C2.00736 39.5074 2.00736 37.4926 3.25 36.25V36.25C4.49264 35.0074 6.50736 35.0074 7.75 36.25L17 45.5H25.75C27.2688 45.5 28.5 44.2688 28.5 42.75V42.75C28.5 41.2312 27.2688 40 25.75 40H19.75C18.5074 40 17.5 38.9926 17.5 37.75V37.75C17.5 36.5074 18.5074 35.5 19.75 35.5H33.5L49.5 51M40 60L37 63L42.5 68.5L59 52L54 46.5L49.5 51M40 60L49.5 51" stroke="#1B8CFF" stroke-width="3" stroke-linecap="round"/>
<path d="M20 71C20.8 71 44.6667 71 56.5 71" stroke="#D4E8FB" stroke-width="3" stroke-linecap="round"/>
<circle cx="17" cy="16" r="14.5" fill="#B4D6F8" stroke="#1B8CFF" stroke-width="3"/>
<path d="M6 18V16C6 9.92487 10.9249 5 17 5V5C23.0751 5 28 9.92487 28 16V18" stroke="#D9EAFB" stroke-width="2" stroke-linecap="round"/>
<path d="M17.792 10.4678V12.4844H16.7256V10.4678H17.792ZM17.6621 21.6309V23.4697H16.5957V21.6309H17.6621ZM18.4141 19.3887C18.4141 19.1289 18.3662 18.9079 18.2705 18.7256C18.1794 18.5433 18.029 18.3815 17.8193 18.2402C17.6143 18.099 17.3363 17.9622 16.9854 17.8301C16.3929 17.6022 15.8711 17.3607 15.4199 17.1055C14.9733 16.8457 14.6247 16.5244 14.374 16.1416C14.1234 15.7542 13.998 15.2643 13.998 14.6719C13.998 14.1068 14.1325 13.6169 14.4014 13.2021C14.6702 12.7874 15.0417 12.4684 15.5156 12.2451C15.9941 12.0173 16.5501 11.9033 17.1836 11.9033C17.6667 11.9033 18.1042 11.9762 18.4961 12.1221C18.888 12.2633 19.2253 12.473 19.5078 12.751C19.7904 13.0244 20.0068 13.3594 20.1572 13.7559C20.3076 14.1523 20.3828 14.6058 20.3828 15.1162H18.4209C18.4209 14.8428 18.3913 14.6012 18.332 14.3916C18.2728 14.182 18.1862 14.0065 18.0723 13.8652C17.9629 13.724 17.8307 13.6191 17.6758 13.5508C17.5208 13.4779 17.3499 13.4414 17.1631 13.4414C16.8851 13.4414 16.6572 13.4961 16.4795 13.6055C16.3018 13.7148 16.1719 13.863 16.0898 14.0498C16.0124 14.2321 15.9736 14.4417 15.9736 14.6787C15.9736 14.9111 16.0146 15.1139 16.0967 15.2871C16.1833 15.4603 16.3314 15.6198 16.541 15.7656C16.7507 15.9069 17.0378 16.0527 17.4023 16.2031C17.9948 16.431 18.5143 16.6771 18.9609 16.9414C19.4076 17.2057 19.7562 17.5293 20.0068 17.9121C20.2575 18.2949 20.3828 18.7826 20.3828 19.375C20.3828 19.9629 20.2461 20.4642 19.9727 20.8789C19.6992 21.2891 19.3164 21.6035 18.8242 21.8223C18.332 22.0365 17.7624 22.1436 17.1152 22.1436C16.696 22.1436 16.279 22.0889 15.8643 21.9795C15.4495 21.8656 15.0736 21.6833 14.7363 21.4326C14.3991 21.182 14.1302 20.8493 13.9297 20.4346C13.7292 20.0153 13.6289 19.5003 13.6289 18.8896H15.5977C15.5977 19.2223 15.641 19.5003 15.7275 19.7236C15.8141 19.9424 15.9281 20.1178 16.0693 20.25C16.2152 20.3776 16.3792 20.4688 16.5615 20.5234C16.7438 20.5781 16.9284 20.6055 17.1152 20.6055C17.4069 20.6055 17.6462 20.5531 17.833 20.4482C18.0244 20.3434 18.168 20.1999 18.2637 20.0176C18.3639 19.8307 18.4141 19.6211 18.4141 19.3887Z" fill="#F5F5F5"/>
<path d="M56.5 49.5L51 55M40.5 65L45.5 60" stroke="#1B8CFF" stroke-width="2" stroke-linecap="round"/>
</svg>

<svg xmlns="http://www.w3.org/2000/svg" width="62" height="73" fill="none"><path fill="#B4D6F8" d="m40 60-3 3 5.5 5.5L59 52l-5-5.5-4.5 4.5-9.5 9Z"/><path stroke="#1B8CFF" stroke-linecap="round" stroke-width="3" d="m40 60-3.9-3.9a14 14 0 0 0-9.899-4.1H14.5L3.25 40.75a3.182 3.182 0 0 1 0-4.5v0a3.182 3.182 0 0 1 4.5 0L17 45.5h8.75a2.75 2.75 0 0 0 2.75-2.75v0A2.75 2.75 0 0 0 25.75 40h-6a2.25 2.25 0 0 1-2.25-2.25v0a2.25 2.25 0 0 1 2.25-2.25H33.5l16 15.5M40 60l-3 3 5.5 5.5L59 52l-5-5.5-4.5 4.5M40 60l9.5-9"/><path stroke="#D4E8FB" stroke-linecap="round" stroke-width="3" d="M20 71h36.5"/><circle cx="17" cy="16" r="14.5" fill="#B4D6F8" stroke="#1B8CFF" stroke-width="3"/><path stroke="#D9EAFB" stroke-linecap="round" stroke-width="2" d="M6 18v-2C6 9.925 10.925 5 17 5v0c6.075 0 11 4.925 11 11v2"/><path fill="#F5F5F5" d="M17.792 10.468v2.016h-1.066v-2.016h1.066Zm-.13 11.163v1.839h-1.066v-1.84h1.066Zm.752-2.242c0-.26-.048-.481-.144-.663a1.293 1.293 0 0 0-.45-.486 3.94 3.94 0 0 0-.835-.41 11.777 11.777 0 0 1-1.565-.724 3.06 3.06 0 0 1-1.046-.964c-.25-.388-.376-.878-.376-1.47 0-.565.135-1.055.403-1.47a2.63 2.63 0 0 1 1.115-.957c.478-.228 1.034-.342 1.668-.342.483 0 .92.073 1.312.22a2.715 2.715 0 0 1 1.661 1.634c.15.395.226.849.226 1.36H18.42c0-.274-.03-.516-.089-.725a1.46 1.46 0 0 0-.26-.527 1.015 1.015 0 0 0-.396-.314 1.19 1.19 0 0 0-.513-.11c-.278 0-.506.055-.683.164a.97.97 0 0 0-.39.445 1.597 1.597 0 0 0-.116.629c0 .232.04.435.123.608.086.173.234.333.444.479.21.14.497.287.861.437.593.228 1.112.474 1.559.738a3.12 3.12 0 0 1 1.046.971c.25.383.376.87.376 1.463 0 .588-.137 1.09-.41 1.504a2.62 2.62 0 0 1-1.149.943c-.492.215-1.062.322-1.709.322-.419 0-.836-.055-1.25-.164a3.368 3.368 0 0 1-1.129-.547 2.658 2.658 0 0 1-.806-.998c-.2-.42-.301-.935-.301-1.545h1.969c0 .332.043.61.13.834.086.218.2.394.341.526.146.128.31.219.492.273.183.055.367.082.554.082.292 0 .531-.052.718-.157.191-.105.335-.248.43-.43.1-.187.151-.397.151-.63Z"/><path stroke="#1B8CFF" stroke-linecap="round" stroke-width="2" d="M56.5 49.5 51 55M40.5 65l5-5"/></svg>
